Suru++-Ubuntu/apps/symbolic/neverball-symbolic.svg

<svg width="16" height="16" version="1.1" xmlns="http://www.w3.org/2000/svg">
 <g transform="translate(-652,-240)">
  <path transform="translate(652,240)" d="m8 0.5c-4.13621 0-7.5 3.36379-7.5 7.5s3.36379 7.5 7.5 7.5 7.5-3.36379 7.5-7.5-3.36379-7.5-7.5-7.5zm0 1c0.0263621 0 0.0518381 0.0035949 0.078125 0.0039062v4.4941407c2.273133 0 4.404919 0.2441423 6.304687 0.7851562 0.074402 0.3942768 0.117188 0.8005544 0.117188 1.2167969 0 3.569408-2.862651 6.45394-6.421875 6.496094v-8.4980471c-2.3179432 0-4.5324999 0.2519236-6.4667969 0.8164062 0.5559898-3.0271744 3.1982226-5.3144531 6.3886719-5.3144531z" style="fill-rule:evenodd;fill:#808080"/>
 </g>
</svg>

<svg xmlns="http://www.w3.org/2000/svg" width="16" height="16" version="1.1">
 <g transform="translate(-652,-240)">
  <path style="fill:#808080;fill-rule:evenodd" d="M 8 0.5 C 3.86379 0.5 0.5 3.86379 0.5 8 C 0.5 12.13621 3.86379 15.5 8 15.5 C 12.13621 15.5 15.5 12.13621 15.5 8 C 15.5 3.86379 12.13621 0.5 8 0.5 z M 8 1.5 C 8.0263621 1.5 8.0518381 1.5035949 8.078125 1.5039062 L 8.078125 5.9980469 C 10.351258 5.9980469 12.483044 6.2421892 14.382812 6.7832031 C 14.457214 7.1774799 14.5 7.5837575 14.5 8 C 14.5 11.569408 11.637349 14.45394 8.078125 14.496094 L 8.078125 5.9980469 C 5.7601818 5.9980469 3.5456251 6.2499705 1.6113281 6.8144531 C 2.1673179 3.7872787 4.8095507 1.5 8 1.5 z" transform="translate(652,240)"/>
 </g>
</svg>
